X:1
T:In nomine Jesu
T:In nomine Jesu
T:Ferdinandus de Lasso
C:Ferdinandus de Lasso
%%score [ 1 2 ] 3
L:1/8
Q:1/4=120
M:2/2
K:C
V:1 treble nm="Soprano 1" snm="S1"
V:2 treble nm="Soprano 2" snm="S2"
V:3 bass nm="BC" snm="BC"
V:1
"^Source: Philomela Coelestis---München---N.Henricus---1624.\nEditor: André Vierendeels (03/03/76)\n" A4 d4- | %1
w: In no-|
 d2 cB ^c4 | d4 z2 dc | B2 BB cBBA/G/ | A8 | G8 | G4 c4- | c2 BA B4 | c4 z2 cB | A2 GF F4- | %10
w: * mi- ne Je-|su o- mne|ge- nu- fle- cta- * * * *||tur,|in no-|* mi- ne Je-|su o- mne|ge- nu- fle- cta-|
 F2 ED E4 | F8 | z4 z2 d2 | ^c3 c d2 F2 | E3 E D2 d2 | ^c3 c d2 F2 | E3 E D4 | z2 A2 _B2 A2 | %18
w: |tur,|coe-|les- ti- um, ter-|re- stricum, _ coe-|les- ti- um, ter-|re- stri- um|et in- fer-|
 GAGF G4 | F2 A2 d2 f2 | e4 d2 F2 | E2 G2 ^F4 | G6 FG | A3 G ^F4 | G8- | G4 ^F4 | ^G4 A4- | %27
w: no- * * * *|rum, et o- mnis|lin- gua con-|fi- te- a-|tur qui- a|Do- mi- nus|Je-|* sus|Chri- *|
 A4 ^G4 | A2 A2 d3 c | B2 D2 G3 F | E2 e2 f3 e | d2 c2 B2 A2 | dedc BcBA | ^G2 A4 G2 | A8 | %35
w: |stus in glo- ri-|a, in glo- ri-|a, in glo- ri-|a est De- i|Pa- * * * * * * *||tris.|
[M:3/2] d4 B4 c4 | A4 d4 B4 | c4 A4 d4 | d8 ^c4 | d8 z4 | A4 ^F4 G4 | E4 A4 ^F4 | G4 E4 A4 | %43
w: Al- le- lu-|ia, Al- le-|lu- ia, Al-|le- lu-|ia,|Al- le- lu-|ia, Al- le-|lu- ia, Al-|
 A8 ^G4 |[M:2/2] A4 d2 B2 | c2 A2 d2 B2 | c4 A4- | A4 B4 | ^c4 d4- | d4 ^c4 | d8 |] %51
w: le- lu-|ia, Al- le|lu- ia, Al- le-|lu- ia,|_ Al-|le- *|* lu-|ia.|
V:2
 z8 | z8 | z8 | D4 G4- | G2 FE ^F4 | G4 z2 GF | E2 EE FEED/C/ | D8 | C8 | z2 cB A2 GF | G8 | %11
w: |||In no-|* mi- ne Je-|su o- mne-|ge- nu- fle- cta- * * * *||tur,|o- mne ge- nu- fle-|cta-|
 A4 z2 d2 | ^c3 c d2 F2 | E3 E D2 d2 | ^c3 c d2 F2 | E3 E D4 | z4 z2 A2 | _B2 A2 GAGF | E2 F4 E2 | %19
w: tur, coe-|les- ti- um, ter-|re- stri- um, coe-|les- ti- um, te-|re- strium- *|et|in- fer- no- * * *||
 F8 | z4 z2 D2 | G2 _B2 A4 | G2 c2 B2 d2 | ^c4 d4- | d2 cd e3 d | ^c4 d4- | d4 c4 | B8 | A4 z2 D2 | %29
w: rum,|et|o- mnis li-|gua con- fi- te-|a- tur|_ qui- a Do- mi-|nus Je-|* sus|Chri-|stus in|
 G3 F E2 G2 | c3 B A2 A2 | f3 e d2 c2 | B2 A2 dedc | BcBA B4 | A8 |[M:3/2] z4 G4 E4 | F4 D4 G4 | %37
w: glo- ri- a, in|glo- ri- a, in|glo- ri- a- est|De- i Pa- * * *||tris.|Al- le-|lu- ia, Al-|
 E4 F4 D4 | G4 F4 E4 | D8 z4 | z4 d4 B4 | c4 A4 d4 | B4 c4 A4 | d4 c4 B4 |[M:2/2] A4 z2 G2 | %45
w: le- lu- ia,|Al- le- lu-|ia,|Al- le-|lu- ia, Al-|le- lu- ia,|Al- le- lu-|ia, Al-|
 E2 F2 D2 G2 | E4 F4 | D4 G4- | G4 F4 | E8 | ^F8 |] %51
w: le- lu- ia, Al-|le- lu-|ia, Al-|* le|lu-|ia.|
V:3
 D,6 E,2 | ^F,2 G,2 A,4 | D,8 | G,,2 D,2 C,2 E,2 | D,8 | G,,8 | C,4 F,,2 A,,2 | G,,8 | %8
 C,2 C,B,, A,,2 A,,G,, | F,,8 | C,8 | F,4 D,4 | A,4 E,2 D,,2 | A,,4 D,,4 | A,,4 _B,,2 D,,2 | %15
 A,,4 _B,,4 | G,,2 A,,2 D,,4 | G,,2 ^F,,2 G,,2 A,,2 | C,8 | F,4 D,4 | A,4 D,4 | C,2 G,,2 D,4 | %22
 G,2 C,2 G,,2 _B,,2 | A,,4 D,4 | B,,2 C,3 B,,C,D, |"^6" E,4 D,4 |"^7" E,4 F,4 | D,4 E,4 | %28
 A,,4 ^F,,4 | G,,2 B,,2 C,4- | C,4 D,4- | D,4 D,4 | D,8 | E,8 | A,,8 |[M:3/2] D,4 G,,4 C,4 | %36
 F,,4 _B,,4 G,,4 | A,,4 F,,4 G,,4 | _B,,4 A,,8 | D,8 z4 | A,4 D,4 G,4 | C,4 F,4 D,4 | E,4 C,4 D,4 | %43
 F,4 E,8 | %44
[M:2/2] A,,4"^Notes: Original keys:  Ut 1st, Ut 1st, Fa 4rth\n            In original print: Cantus-Cantus vel Tenor-Tenor" ^F,,2 G,,2 | %45
 C,2 F,,2 _B,,2 G,,2 | A,,4 D,4- | D,4 G,,4 | A,,8- | A,,8 | D,,8 |] %51

